X: 322
T: Bulgar "Dva Kolena" (Two Strains)
R: bulgar
Q: 1/4=150
B: German Goldenshteyn "Shpilt klezmorimlach klingen zoln di gesalach" New York 2003 v.3 #22
Z: 2012 John Chambers <jc:trillian.mit.edu>
M: 2/4
L: 1/8
K: Em
|:\
E2 (3(cBA) | B2 (3(BAG) | A2 (3(AGF) | G3 G |\
FGAB | (TA>G) (TF>E) |[1 (3(E^DE) (3(GFG) | (3(B^AB) e2 :|\
[2 E4- | E Bc^c ||
|:\
(c/e/)d dd | (Td>c) (Tc>B) | B4- | B Bc^c |\
(c/e/)d dd | (Td>=c) (Tc>B) | B4- | B4 |
c/c/c AB | c4 | A/A/A GA | B4 |\
(TBA) (TAG) | (TGF) (TFE) |[1 E4- | E Bc^c :|[2 E4- | E2 z2 |]
